assets/svg/icon_button_details.svg

<svg width="24" height="24" viewBox="0 0 24 24" fill="none" xmlns="http://www.w3.org/2000/svg">
<path d="M16.753 2.00195H7.24305C6.08405 2.00195 5.50505 2.00195 5.03705 2.16495C4.59583 2.32141 4.19661 2.57746 3.87038 2.91322C3.54416 3.24897 3.29972 3.65541 3.15605 4.10095C2.99805 4.58295 2.99805 5.17895 2.99805 6.37195V20.376C2.99805 21.234 3.98305 21.69 4.60605 21.12C4.78083 20.9585 5.01007 20.8688 5.24805 20.8688C5.48602 20.8688 5.71526 20.9585 5.89005 21.12L6.37305 21.562C6.67925 21.8451 7.08098 22.0024 7.49805 22.0024C7.91511 22.0024 8.31684 21.8451 8.62305 21.562C8.92925 21.2788 9.33098 21.1215 9.74805 21.1215C10.1651 21.1215 10.5668 21.2788 10.873 21.562C11.1793 21.8451 11.581 22.0024 11.998 22.0024C12.4151 22.0024 12.8168 21.8451 13.123 21.562C13.4293 21.2788 13.831 21.1215 14.248 21.1215C14.6651 21.1215 15.0668 21.2788 15.373 21.562C15.6793 21.8451 16.081 22.0024 16.498 22.0024C16.9151 22.0024 17.3168 21.8451 17.623 21.562L18.106 21.12C18.2808 20.9585 18.5101 20.8688 18.748 20.8688C18.986 20.8688 19.2153 20.9585 19.39 21.12C20.013 21.69 20.998 21.234 20.998 20.376V6.37195C20.998 5.17895 20.998 4.58195 20.84 4.10195C20.6966 3.65619 20.4522 3.24952 20.126 2.91357C19.7997 2.57762 19.4004 2.32144 18.959 2.16495C18.491 2.00195 17.912 2.00195 16.753 2.00195Z" stroke="white" stroke-width="1.44"/>
<path d="M10.498 11.002H16.998M6.99805 11.002H7.49805M6.99805 7.50195H7.49805M6.99805 14.502H7.49805M10.498 7.50195H16.998M10.498 14.502H16.998" stroke="white" stroke-width="1.44" stroke-linecap="round"/>
</svg>

<svg xmlns="http://www.w3.org/2000/svg" width="24" height="24" fill="none"><path stroke="#fff" stroke-width="1.44" d="M16.753 2.002h-9.51c-1.159 0-1.738 0-2.206.163a3.05 3.05 0 0 0-1.881 1.936c-.158.482-.158 1.078-.158 2.271v14.004c0 .858.985 1.314 1.608.744a.946.946 0 0 1 1.284 0l.483.442a1.657 1.657 0 0 0 2.25 0 1.657 1.657 0 0 1 2.25 0 1.66 1.66 0 0 0 2.25 0 1.657 1.657 0 0 1 2.25 0 1.66 1.66 0 0 0 2.25 0l.483-.442a.946.946 0 0 1 1.284 0c.623.57 1.608.114 1.608-.744V6.372c0-1.193 0-1.79-.158-2.27a3.04 3.04 0 0 0-1.881-1.937c-.468-.163-1.047-.163-2.206-.163Z"/><path stroke="#fff" stroke-linecap="round" stroke-width="1.44" d="M10.498 11.002h6.5m-10 0h.5m-.5-3.5h.5m-.5 7h.5m3-7h6.5m-6.5 7h6.5"/></svg>
